icons/kusto.svg

<!--
  - The MIT License (MIT)
  -
  - Copyright (c) 2015-2024 Elior "Mallowigi" Boukhobza
  -
  - Permission is hereby granted, free of charge, to any person obtaining a copy
  - of this software and associated documentation files (the "Software"), to deal
  - in the Software without restriction, including without limitation the rights
  - to use, copy, modify, merge, publish, distribute, sublicense, and/or sell
  - copies of the Software, and to permit persons to whom the Software is
  - furnished to do so, subject to the following conditions:
  -
  - The above copyright notice and this permission notice shall be included in all
  - copies or substantial portions of the Software.
  -
  - THE SOFTWARE IS PROVIDED "AS IS", WITHOUT WARRANTY OF ANY KIND, EXPRESS OR
  - IMPLIED, INCLUDING BUT NOT LIMITED TO THE WARRANTIES OF MERCHANTABILITY,
  - FITNESS FOR A PARTICULAR PURPOSE AND NONINFRINGEMENT. IN NO EVENT SHALL THE
  - AUTHORS OR COPYRIGHT HOLDERS BE LIABLE FOR ANY CLAIM, DAMAGES OR OTHER
  - LIABILITY, WHETHER IN AN ACTION OF CONTRACT, TORT OR OTHERWISE, ARISING FROM,
  - OUT OF OR IN CONNECTION WITH THE SOFTWARE OR THE USE OR OTHER DEALINGS IN THE
  - SOFTWARE.
  -
  -->

<svg  version="1.1" xmlns="http://www.w3.org/2000/svg" viewBox="0 0 512 512" width="16px" height="16px">
  <path fill="#54abce" data-iconColor="Kusto"
        d="M512,509.3875732L2.6122596,0.0000206H512V509.3875732z M290.919342,189.2119293l32.1777954-32.177887c1.4872437-1.4872742,1.4872437-3.8986206-0.0000305-5.3858795l-32.1777649-32.1773911c-1.4872742-1.4872589-3.8985901-1.4872437-5.3858643,0.0000229l-32.1777802,32.177887c-1.4872742,1.4872742-1.4872742,3.8986206,0.0000153,5.3858948l32.1777649,32.1773834C287.020752,190.6992035,289.4320679,190.6992035,290.919342,189.2119293z M361.9807129,116.8757172l32.1777954-32.1778946c1.4872742-1.4872742,1.4872437-3.8986206-0.0000305-5.3858795l-32.1777649-32.1773872c-1.4872742-1.4872551-3.8985901-1.4872475-5.3858643,0.0000191l-32.1777954,32.1778946c-1.4872437,1.4872742-1.4872437,3.8986206,0.0000305,5.3858871l32.1777649,32.1773834C358.0821228,118.362999,360.4934387,118.3629837,361.9807129,116.8757172z M362.5621338,261.3213196l32.1777954-32.177887c1.4872437-1.4872742,1.4872437-3.8986206-0.0000305-5.3858795l-32.1777649-32.1773834c-1.4872742-1.4872589-3.8985901-1.4872437-5.3858643,0.0000153l-32.1777954,32.1779022c-1.4872742,1.4872742-1.4872437,3.8986206,0.0000305,5.3858795l32.1777649,32.1773834C358.6635437,262.8085938,361.0748596,262.8085938,362.5621338,261.3213196z M433.6235046,188.9851227L465.8013,156.8072205c1.4872437-1.4872742,1.4872437-3.8986206-0.0000305-5.3858795l-32.1777649-32.1773911c-1.4872742-1.4872513-3.8985901-1.4872437-5.3858643,0.0000229L396.059845,151.421875c-1.4872742,1.4872742-1.4872437,3.8986206,0.0000305,5.3858795l32.1777649,32.1773834C429.7249146,190.4723969,432.1362305,190.4723816,433.6235046,188.9851227z M163.7558594,243.1758881l-35.6212616-35.6212921L0.9806916,333.5023499l35.6212654,35.6213074L163.7558594,243.1758881z M234.7036591,314.1236877l-35.6212463-35.6212463L0,476.3787537L35.6212387,512L234.7036591,314.1236877z M305.6515808,385.0715942l-35.6212769-35.6212769L142.8764038,475.3980713l35.6212616,35.6213074L305.6515808,385.0715942z"/>
</svg>

<svg xmlns="http://www.w3.org/2000/svg" viewBox="0 0 512 512"><path fill="#54abce" d="M512 509.388 2.612 0H512zM290.92 189.212l32.177-32.178a3.81 3.81 0 0 0 0-5.386l-32.178-32.177a3.81 3.81 0 0 0-5.386 0l-32.177 32.178a3.81 3.81 0 0 0 0 5.386l32.177 32.177a3.81 3.81 0 0 0 5.386 0m71.06-72.336 32.179-32.178a3.81 3.81 0 0 0 0-5.386L361.98 47.135a3.81 3.81 0 0 0-5.386 0l-32.178 32.177a3.81 3.81 0 0 0 0 5.386l32.178 32.178a3.81 3.81 0 0 0 5.386 0m.582 144.445 32.178-32.178a3.81 3.81 0 0 0 0-5.385l-32.178-32.178a3.81 3.81 0 0 0-5.386 0l-32.178 32.178a3.81 3.81 0 0 0 0 5.386l32.178 32.177a3.81 3.81 0 0 0 5.386 0m71.062-72.336 32.177-32.178a3.81 3.81 0 0 0 0-5.386l-32.177-32.177a3.81 3.81 0 0 0-5.386 0l-32.178 32.178a3.81 3.81 0 0 0 0 5.386l32.178 32.177a3.81 3.81 0 0 0 5.386 0m-269.868 54.19-35.621-35.62L.98 333.502l35.621 35.622zm70.948 70.949-35.622-35.622L0 476.38 35.621 512zm70.948 70.948L270.03 349.45 142.876 475.398l35.622 35.621z" data-iconColor="Kusto"/></svg>
